<?xml version="1.0" encoding="UTF-8"?>
<map version="1.10" tiledversion="1.11.2" orientation="orthogonal" renderorder="right-down" width="10" height="10" tilewidth="16" tileheight="16" infinite="0" nextlayerid="13" nextobjectid="1">
 <tileset firstgid="1" source="../Tileset.tsx"/>
 <layer id="1" name="input_Biom3" width="10" height="10">
  <data encoding="csv">
114,0,0,0,0,0,0,0,0,0,
0,0,0,0,0,0,0,0,0,0,
0,0,0,0,0,0,0,0,0,0,
0,0,0,0,0,0,0,0,0,0,
0,0,0,0,0,0,0,0,0,0,
0,0,0,0,0,0,0,0,0,0,
0,0,0,0,0,0,0,0,0,0,
0,0,0,0,0,0,0,0,0,0,
0,0,0,0,0,0,0,0,0,0,
0,0,0,0,0,0,0,0,0,0
</data>
 </layer>
 <layer id="2" name="output0_Biom3" width="10" height="10">
  <data encoding="csv">
114,0,0,0,0,0,0,0,0,0,
0,0,0,0,0,0,0,0,0,0,
0,0,0,0,0,0,0,0,0,0,
0,0,0,0,0,0,0,0,0,0,
0,0,0,0,0,0,0,0,0,0,
0,0,0,0,0,0,0,0,0,0,
0,0,0,0,0,0,0,0,0,0,
0,0,0,0,0,0,0,0,0,0,
0,0,0,0,0,0,0,0,0,0,
0,0,0,0,0,0,0,0,0,0
</data>
 </layer>
 <layer id="11" name="output10_Biom2" width="10" height="10">
    <data encoding="csv">
  114,0,0,0,0,0,0,0,0,0,
  0,0,0,0,0,0,0,0,0,0,
  0,0,0,0,0,0,0,0,0,0,
  0,0,0,0,0,0,0,0,0,0,
  0,0,0,0,0,0,0,0,0,0,
  0,0,0,0,0,0,0,0,0,0,
  0,0,0,0,0,0,0,0,0,0,
  0,0,0,0,0,0,0,0,0,0,
  0,0,0,0,0,0,0,0,0,0,
  0,0,0,0,0,0,0,0,0,0
  </data>
   </layer>
    <layer id="10" name="output9_Biom2" width="10" height="10">
     <data encoding="csv">
   114,0,0,0,0,0,0,0,0,0,
   0,0,0,0,0,0,0,0,0,0,
   0,0,0,0,0,0,0,0,0,0,
   0,0,0,0,0,0,0,0,0,0,
   0,0,0,0,0,0,0,0,0,0,
   0,0,0,0,0,0,0,0,0,0,
   0,0,0,0,0,0,0,0,0,0,
   0,0,0,0,0,0,0,0,0,0,
   0,0,0,0,0,0,0,0,0,0,
   0,0,0,0,0,0,0,0,0,0
   </data>
    </layer>
     <layer id="9" name="output8_Biom2" width="10" height="10">
      <data encoding="csv">
    114,0,0,0,0,0,0,0,0,0,
    0,0,0,0,0,0,0,0,0,0,
    0,0,0,0,0,0,0,0,0,0,
    0,0,0,0,0,0,0,0,0,0,
    0,0,0,0,0,0,0,0,0,0,
    0,0,0,0,0,0,0,0,0,0,
    0,0,0,0,0,0,0,0,0,0,
    0,0,0,0,0,0,0,0,0,0,
    0,0,0,0,0,0,0,0,0,0,
    0,0,0,0,0,0,0,0,0,0
    </data>
     </layer>
      <layer id="8" name="output7_Biom2" width="10" height="10">
       <data encoding="csv">
     114,0,0,0,0,0,0,0,0,0,
     0,0,0,0,0,0,0,0,0,0,
     0,0,0,0,0,0,0,0,0,0,
     0,0,0,0,0,0,0,0,0,0,
     0,0,0,0,0,0,0,0,0,0,
     0,0,0,0,0,0,0,0,0,0,
     0,0,0,0,0,0,0,0,0,0,
     0,0,0,0,0,0,0,0,0,0,
     0,0,0,0,0,0,0,0,0,0,
     0,0,0,0,0,0,0,0,0,0
     </data>
      </layer>
 <layer id="7" name="output6_Biom3" width="10" height="10">
  <data encoding="csv">
114,0,0,0,0,0,0,0,0,0,
0,0,0,0,0,0,0,0,0,0,
0,0,0,0,0,0,0,0,0,0,
0,0,0,0,0,0,0,0,0,0,
0,0,0,0,0,0,0,0,0,0,
0,0,0,0,0,0,0,0,0,0,
0,0,0,0,0,0,0,0,0,0,
0,0,0,0,0,0,0,0,0,0,
0,0,0,0,0,0,0,0,0,0,
0,0,0,0,0,0,0,0,0,0
</data>
 </layer>
 <layer id="8" name="output5_Biom3" width="10" height="10">
  <data encoding="csv">
114,0,0,0,0,0,0,0,0,0,
0,0,0,0,0,0,0,0,0,0,
0,0,0,0,0,0,0,0,0,0,
0,0,0,0,0,0,0,0,0,0,
0,0,0,0,0,0,0,0,0,0,
0,0,0,0,0,0,0,0,0,0,
0,0,0,0,0,0,0,0,0,0,
0,0,0,0,0,0,0,0,0,0,
0,0,0,0,0,0,0,0,0,0,
0,0,0,0,0,0,0,0,0,0
</data>
 </layer>
 <layer id="3" name="output1_Biom3" width="10" height="10">
  <data encoding="csv">
124,0,0,0,0,0,0,0,0,0,
0,0,0,0,0,0,0,0,0,0,
0,0,0,0,0,0,0,0,0,0,
0,0,0,0,0,0,0,0,0,0,
0,0,0,0,0,0,0,0,0,0,
0,0,0,0,0,0,0,0,0,0,
0,0,0,0,0,0,0,0,0,0,
0,0,0,0,0,0,0,0,0,0,
0,0,0,0,0,0,0,0,0,0,
0,0,0,0,0,0,0,0,0,0
</data>
 </layer>
 <layer id="4" name="output2_Biom3" width="10" height="10">
  <data encoding="csv">
125,0,0,0,0,0,0,0,0,0,
0,0,0,0,0,0,0,0,0,0,
0,0,0,0,0,0,0,0,0,0,
0,0,0,0,0,0,0,0,0,0,
0,0,0,0,0,0,0,0,0,0,
0,0,0,0,0,0,0,0,0,0,
0,0,0,0,0,0,0,0,0,0,
0,0,0,0,0,0,0,0,0,0,
0,0,0,0,0,0,0,0,0,0,
0,0,0,0,0,0,0,0,0,0
</data>
 </layer>
 <layer id="5" name="output3_Biom3" width="10" height="10">
  <data encoding="csv">
152,0,0,0,0,0,0,0,0,0,
0,0,0,0,0,0,0,0,0,0,
0,0,0,0,0,0,0,0,0,0,
0,0,0,0,0,0,0,0,0,0,
0,0,0,0,0,0,0,0,0,0,
0,0,0,0,0,0,0,0,0,0,
0,0,0,0,0,0,0,0,0,0,
0,0,0,0,0,0,0,0,0,0,
0,0,0,0,0,0,0,0,0,0,
0,0,0,0,0,0,0,0,0,0
</data>
 </layer>
 <layer id="6" name="output4_Biom3" width="10" height="10">
  <data encoding="csv">
153,0,0,0,0,0,0,0,0,0,
0,0,0,0,0,0,0,0,0,0,
0,0,0,0,0,0,0,0,0,0,
0,0,0,0,0,0,0,0,0,0,
0,0,0,0,0,0,0,0,0,0,
0,0,0,0,0,0,0,0,0,0,
0,0,0,0,0,0,0,0,0,0,
0,0,0,0,0,0,0,0,0,0,
0,0,0,0,0,0,0,0,0,0,
0,0,0,0,0,0,0,0,0,0
</data>
 </layer>
</map>
