<?xml version="1.0" encoding="UTF-8"?>
<map version="1.10" tiledversion="1.11.2" orientation="orthogonal" renderorder="right-down" width="10" height="10" tilewidth="16" tileheight="16" infinite="0" nextlayerid="3" nextobjectid="1">
 <tileset firstgid="1" source="../Tileset.tsx"/>
 <layer id="1" name="output_Hintergrund_-1" width="10" height="10">
  <data encoding="csv">
0,0,482,0,594,0,479,0,0,0,
0,0,0,0,0,0,0,0,0,0,
482,0,595,0,0,0,592,0,479,0,
0,0,0,0,0,0,0,0,0,0,
370,0,0,0,0,0,0,0,365,0,
0,0,0,0,0,0,0,0,0,0,
143,0,144,0,0,0,139,0,140,0,
0,0,0,0,0,0,0,0,0,0,
0,0,143,0,28,0,140,0,0,0,
0,0,0,0,0,0,0,0,0,0
</data>
 </layer>
 <layer id="2" name="input_Hintergrund_Top" width="10" height="10">
  <data encoding="csv">
0,0,567,0,568,0,569,0,0,0,
0,0,0,0,0,0,0,0,0,0,
679,0,680,0,0,0,682,0,683,0,
0,0,0,0,0,0,0,0,0,0,
792,0,0,0,0,0,0,0,796,0,
0,0,0,0,0,0,0,0,0,0,
905,0,906,0,0,0,908,0,909,0,
0,0,0,0,0,0,0,0,0,0,
0,0,1019,0,1020,0,1021,0,0,0,
0,0,0,0,0,0,0,0,0,0
</data>
 </layer>
</map>
